images/ctoken-zrx.svg

<svg height="250" viewBox="0 0 250 250" width="250" xmlns="http://www.w3.org/2000/svg" xmlns:xlink="http://www.w3.org/1999/xlink"><linearGradient id="a" gradientTransform="scale(.976562 .972763)" gradientUnits="userSpaceOnUse" x1="96.456398" x2="136.022003" y1="15.5724" y2="234.931"><stop offset="0" stop-color="#27d3a2"/><stop offset="1" stop-color="#9388fd"/></linearGradient><path d="m247.617188 113c6.710937 67.457031-42.75 127.558594-110.46875 134.242188-67.71875 6.683593-128.054688-42.582032-134.765626-110.039063-6.710937-67.457031 42.75-127.558594 110.46875-134.242187 67.71875-6.683594 128.054688 42.582031 134.765626 110.039062zm0 0" fill="#f9fafb"/><path d="m203.222656 219.933594c-18.828125 15.410156-41.824218 24.914062-66.074218 27.308594-32.519532 3.207031-64.988282-6.582032-90.261719-27.21875-25.273438-20.636719-41.28125-50.425782-44.503907-82.820313-2.4023432-24.15625 2.441407-48.480469 13.914063-69.898437 11.476563-21.414063 29.070313-38.960938 50.554687-50.414063 21.488282-11.457031 45.898438-16.308594 70.15625-13.941406 24.253907 2.363281 47.257813 11.839843 66.105469 27.230469l-24.855469 30.203124c-12.851562-10.496093-28.535156-16.957031-45.070312-18.566406-16.539062-1.613281-33.183594 1.695313-47.832031 9.503906-14.652344 7.8125-26.644531 19.773438-34.46875 34.375-7.824219 14.601563-11.128907 31.1875-9.488281 47.65625 2.195312 22.085938 13.109374 42.398438 30.34375 56.46875 17.230468 14.070313 39.367187 20.746094 61.539062 18.558594 16.539062-1.632812 32.214844-8.113281 45.054688-18.621094zm0 0" fill="url(#a)"/><path d="m125 226.269531c56.09375 0 101.5625-45.292969 101.5625-101.167969s-45.46875-101.167968-101.5625-101.167968c-56.089844 0-101.5625 45.292968-101.5625 101.167968s45.472656 101.167969 101.5625 101.167969zm0 0" fill="#fff"/><g fill="#283947"><path d="m95.332031 138.097656 7.660157-7.957031-9.523438-12.90625-12.125-17.230469c-4.28125 7.339844-6.738281 15.886719-6.738281 25.011719 0 15.113281 6.738281 28.648437 17.367187 37.734375l15.390625-10.921875c-5.238281-3.277344-9.453125-8.046875-12.03125-13.730469zm0 0"/><path d="m111.953125 95.546875 7.992187 7.628906 12.953126-9.484375 17.296874-12.074218c-7.367187-4.269532-15.949218-6.714844-25.109374-6.714844-15.171876 0-28.757813 6.714844-37.882813 17.300781l10.96875 15.328125c3.289063-5.214844 8.074219-9.414062 13.78125-11.984375zm0 0"/><path d="m147.007812 120.0625 9.523438 12.90625 12.125 17.230469c4.28125-7.339844 6.738281-15.886719 6.738281-25.011719 0-15.113281-6.738281-28.648438-17.367187-37.734375l-15.390625 10.921875c5.234375 3.277344 9.453125 8.046875 12.03125 13.730469zm0 0"/><path d="m162.796875 158-10.96875-15.328125c-3.289063 5.214844-8.074219 9.414063-13.78125 11.984375l-7.992187-7.632812-12.953126 9.488281-17.296874 12.074219c7.367187 4.265624 15.949218 6.714843 25.109374 6.714843 15.171876 0 28.757813-6.714843 37.882813-17.300781zm0 0"/></g></svg>

<svg xmlns="http://www.w3.org/2000/svg" xmlns:xlink="http://www.w3.org/1999/xlink" width="250px" height="250px" viewBox="0 0 250 250" version="1.1">
<defs>
<linearGradient id="linear0" gradientUnits="userSpaceOnUse" x1="96.456398" y1="15.5724" x2="136.022003" y2="234.931" gradientTransform="matrix(0.976562,0,0,0.972763,0,0)">
<stop offset="0" style="stop-color:rgb(15.294118%,82.745099%,63.529414%);stop-opacity:1;"/>
<stop offset="1" style="stop-color:rgb(57.647061%,53.333336%,99.215686%);stop-opacity:1;"/>
</linearGradient>
</defs>
<g id="surface1">
<path style=" stroke:none;fill-rule:nonzero;fill:rgb(97.647059%,98.039216%,98.431373%);fill-opacity:1;" d="M 247.617188 113 C 254.328125 180.457031 204.867188 240.558594 137.148438 247.242188 C 69.429688 253.925781 9.09375 204.660156 2.382812 137.203125 C -4.328125 69.746094 45.132812 9.644531 112.851562 2.960938 C 180.570312 -3.722656 240.90625 45.542969 247.617188 113 Z M 247.617188 113 "/>
<path style=" stroke:none;fill-rule:nonzero;fill:url(#linear0);" d="M 203.222656 219.933594 C 184.394531 235.34375 161.398438 244.847656 137.148438 247.242188 C 104.628906 250.449219 72.160156 240.660156 46.886719 220.023438 C 21.613281 199.386719 5.605469 169.597656 2.382812 137.203125 C -0.0195312 113.046875 4.824219 88.722656 16.296875 67.304688 C 27.773438 45.890625 45.367188 28.34375 66.851562 16.890625 C 88.339844 5.433594 112.75 0.582031 137.007812 2.949219 C 161.261719 5.3125 184.265625 14.789062 203.113281 30.179688 L 178.257812 60.382812 C 165.40625 49.886719 149.722656 43.425781 133.1875 41.816406 C 116.648438 40.203125 100.003906 43.511719 85.355469 51.320312 C 70.703125 59.132812 58.710938 71.09375 50.886719 85.695312 C 43.0625 100.296875 39.757812 116.882812 41.398438 133.351562 C 43.59375 155.4375 54.507812 175.75 71.742188 189.820312 C 88.972656 203.890625 111.109375 210.566406 133.28125 208.378906 C 149.820312 206.746094 165.496094 200.265625 178.335938 189.757812 Z M 203.222656 219.933594 "/>
<path style=" stroke:none;fill-rule:nonzero;fill:rgb(100%,100%,100%);fill-opacity:1;" d="M 125 226.269531 C 181.09375 226.269531 226.5625 180.976562 226.5625 125.101562 C 226.5625 69.226562 181.09375 23.933594 125 23.933594 C 68.910156 23.933594 23.4375 69.226562 23.4375 125.101562 C 23.4375 180.976562 68.910156 226.269531 125 226.269531 Z M 125 226.269531 "/>
<path style=" stroke:none;fill-rule:nonzero;fill:rgb(15.686275%,22.352941%,27.843139%);fill-opacity:1;" d="M 95.332031 138.097656 L 102.992188 130.140625 L 93.46875 117.234375 L 81.34375 100.003906 C 77.0625 107.34375 74.605469 115.890625 74.605469 125.015625 C 74.605469 140.128906 81.34375 153.664062 91.972656 162.75 L 107.363281 151.828125 C 102.125 148.550781 97.910156 143.78125 95.332031 138.097656 Z M 95.332031 138.097656 "/>
<path style=" stroke:none;fill-rule:nonzero;fill:rgb(15.686275%,22.352941%,27.843139%);fill-opacity:1;" d="M 111.953125 95.546875 L 119.945312 103.175781 L 132.898438 93.691406 L 150.195312 81.617188 C 142.828125 77.347656 134.246094 74.902344 125.085938 74.902344 C 109.914062 74.902344 96.328125 81.617188 87.203125 92.203125 L 98.171875 107.53125 C 101.460938 102.316406 106.246094 98.117188 111.953125 95.546875 Z M 111.953125 95.546875 "/>
<path style=" stroke:none;fill-rule:nonzero;fill:rgb(15.686275%,22.352941%,27.843139%);fill-opacity:1;" d="M 147.007812 120.0625 L 156.53125 132.96875 L 168.65625 150.199219 C 172.9375 142.859375 175.394531 134.3125 175.394531 125.1875 C 175.394531 110.074219 168.65625 96.539062 158.027344 87.453125 L 142.636719 98.375 C 147.871094 101.652344 152.089844 106.421875 154.667969 112.105469 Z M 147.007812 120.0625 "/>
<path style=" stroke:none;fill-rule:nonzero;fill:rgb(15.686275%,22.352941%,27.843139%);fill-opacity:1;" d="M 162.796875 158 L 151.828125 142.671875 C 148.539062 147.886719 143.753906 152.085938 138.046875 154.65625 L 130.054688 147.023438 L 117.101562 156.511719 L 99.804688 168.585938 C 107.171875 172.851562 115.753906 175.300781 124.914062 175.300781 C 140.085938 175.300781 153.671875 168.585938 162.796875 158 Z M 162.796875 158 "/>
</g>
</svg>
